deployments/warp_routes/stTIA/logo.svg

<svg width="240" height="240" viewBox="0 0 240 240" fill="none" xmlns="http://www.w3.org/2000/svg">
<rect width="240" height="240" rx="120" fill="#E50571"/>
<path d="M198.309 103.357C195.172 88.3238 187.721 74.5543 176.609 63.4429C161.489 48.3227 141.402 40 120.007 40C98.6117 40 78.524 48.2791 63.4037 63.3993C59.6999 67.1031 56.4754 71.0684 53.6431 75.2515C52.8152 76.3845 52.0309 77.561 51.3773 78.8246C43.9696 91.1561 40.0044 105.231 40.0044 120.002C40.0044 141.397 48.3271 161.485 63.4473 176.605C78.5676 191.725 98.6553 200.048 120.05 200.048C141.445 200.048 161.533 191.725 176.653 176.605C183.756 169.503 189.42 161.223 193.386 152.291C193.865 151.332 194.257 150.286 194.649 149.241C198.266 140.09 200.14 130.199 200.14 120.046C200.14 114.686 199.617 109.588 198.571 104.446C198.527 104.185 198.353 103.531 198.309 103.357ZM170.553 66.7981C170.988 67.2339 171.468 67.6696 171.947 68.1489C179.006 75.208 184.496 83.487 188.113 92.4633C188.462 93.3348 187.721 94.337 186.719 94.1627C184.627 93.7706 182.231 93.6398 179.616 93.6834C177.786 93.727 176.174 92.4198 175.869 90.6768C174.431 82.6591 172.339 75.2951 169.725 68.8461C169.594 68.4975 169.42 68.1489 169.289 67.7132C168.94 66.8853 169.943 66.1445 170.553 66.7981ZM178.178 113.728C178.178 112.9 179.224 112.507 179.747 113.205C180.313 114.033 180.923 114.904 181.49 115.732C182.231 116.865 182.928 117.998 183.538 119.131C183.93 119.828 183.843 120.699 183.32 121.309C182.492 122.225 181.533 123.227 180.531 124.229C180.183 124.578 179.79 124.97 179.398 125.362C178.919 125.798 178.091 125.449 178.135 124.839C178.178 123.619 178.222 122.442 178.222 121.179C178.265 118.608 178.265 116.168 178.178 113.728ZM77.3911 60.2184C89.7661 51.3729 104.494 46.6233 120.007 46.6233C124.103 46.6233 128.155 46.9719 132.12 47.5819C133.166 47.7562 133.558 49.107 132.687 49.7606C128.852 52.7672 125.323 57.2118 122.142 62.9636C121.401 64.4015 119.745 65.0552 118.176 64.6194C107.719 61.6999 97.4352 60.3056 87.936 60.6106C84.4065 60.7413 81.1384 61.0899 78.0011 61.6564C77.1296 61.8742 76.6939 60.7413 77.3911 60.2184ZM66.9332 169.895C65.3646 167.019 67.369 160.265 77.5218 149.981C78.5676 148.935 78.4804 147.193 77.3039 146.234C76.9117 145.929 76.5196 145.624 76.0838 145.275C75.0816 144.491 73.6001 144.534 72.685 145.45C72.4672 145.667 72.3364 145.798 72.2929 145.842C67.2383 151.027 63.6652 155.864 61.7043 160.221C61.1379 161.485 59.4385 161.616 58.6977 160.439C50.8108 148.587 46.5841 134.643 46.5841 120.046C46.5841 114.86 47.107 109.675 48.1963 104.708C48.3706 103.967 49.4164 103.923 49.6779 104.664C51.203 109.675 53.6867 114.904 57.0855 120.133C61.7043 127.192 67.7612 133.99 74.9945 140.264C77.4346 142.399 80.0491 144.447 82.7943 146.452C88.3282 150.504 94.2543 154.208 100.616 157.476C103.405 158.958 106.194 160.308 108.982 161.616C110.551 162.313 112.338 162.356 113.906 161.746C115.257 161.223 116.564 160.701 117.915 160.134C119.397 159.524 120.181 157.955 119.789 156.387C119.745 156.212 119.702 156.038 119.702 155.951C117.479 146.67 116.259 136.168 116.085 125.231C116.085 125.1 116.085 122.617 116.085 120.046C116.085 117.475 116.172 116.298 116.259 114.425C116.913 101.178 119.179 88.7595 122.752 78.2581C123.057 77.2995 122.577 76.2537 121.575 75.9051C120.66 75.6001 119.702 75.2951 118.743 74.9901C117.828 74.6851 116.782 75.2079 116.434 76.1666C112.555 87.5394 110.159 101.004 109.549 115.253C109.462 117.083 108.503 118.739 106.934 119.654C98.481 124.665 90.7683 129.981 84.0143 135.297C82.62 136.43 80.6155 136.343 79.2647 135.21C72.5543 129.371 66.8897 123.052 62.6194 116.473C54.2096 103.575 52.2052 91.4611 56.9983 82.267L57.0419 82.2234C57.6519 81.2212 58.3056 80.219 58.9592 79.2604C64.4495 72.027 74.6459 67.8003 88.1975 67.321C89.0254 67.2774 89.9404 67.2774 90.7683 67.2774C99.091 67.2774 107.98 68.6718 117.044 71.2863C117.218 71.3298 118.525 71.722 118.787 71.8092C121.096 72.5499 125.018 73.9007 125.541 74.075C125.758 74.1622 126.978 74.6415 127.153 74.6851C131.597 76.428 135.998 78.3889 140.356 80.6547C148.809 85.0557 156.522 90.1975 163.319 95.8621C150.465 98.7816 135.519 104.49 120.486 112.115C119.789 112.464 119.309 113.161 119.266 113.945C119.222 114.86 119.135 116.734 119.092 118.259C119.048 119.174 120.05 119.828 120.878 119.392C135.78 111.549 150.639 105.753 163.407 102.616C165.803 102.05 167.328 99.7838 167.023 97.3436C166.805 95.6443 166.544 93.9449 166.239 92.3326C165.89 90.2846 164.714 88.4109 163.101 87.1909C157.132 82.6591 150.552 78.476 143.493 74.7722C138.744 72.2885 133.95 70.1533 129.07 68.2797C128.068 67.8875 127.589 66.6674 128.155 65.7088C133.122 56.8196 139.049 51.8522 144.844 51.8522C144.887 51.8522 144.975 51.8522 145.018 51.8522C151.816 51.9829 158.57 59.0419 163.624 71.2863C166.152 77.4738 168.113 84.62 169.507 92.3762C169.899 94.5549 170.204 96.7772 170.466 99.043C170.596 100.22 170.814 102.006 170.945 102.79C171.511 108.673 171.729 114.817 171.642 121.048C171.555 125.013 171.381 128.935 171.032 132.726C161.925 140.046 150.683 147.41 138.308 153.947C134.953 155.689 131.597 157.389 128.286 158.958C127.589 159.306 124.713 160.57 124.538 160.657C121.401 162.095 118.307 163.359 115.213 164.579C115.039 164.666 111.553 165.973 111.335 166.06C111.074 166.147 109.287 166.801 109.069 166.888C102.403 169.241 95.9972 171.028 90.1583 172.161C75.3866 174.993 68.4583 172.814 66.9332 169.895ZM87.0209 141.397C93.4699 136.168 101.052 130.852 109.375 125.885C109.549 136.517 110.725 146.757 112.817 155.951C109.767 154.6 106.673 153.206 103.623 151.594C97.6966 148.543 92.1191 145.101 87.0209 141.397ZM129.462 192.815C126.368 193.207 123.188 193.425 120.007 193.425C105.714 193.425 92.0756 189.372 80.3977 181.834C79.6133 181.311 79.9619 180.047 80.877 180.004C81.0513 180.004 81.2692 180.004 81.3999 179.96C84.3629 179.786 87.631 179.35 91.1605 178.653C98.6553 177.172 107.022 174.731 115.78 171.376C116.564 171.071 117.436 171.463 117.784 172.248C121.183 180.527 125.323 186.758 130.072 190.723C130.9 191.42 130.508 192.684 129.462 192.815ZM160.531 173.206C155.302 183.533 148.853 189.285 142.578 189.154C135.78 189.024 129.026 181.965 123.972 169.72C123.667 168.98 124.015 168.065 124.756 167.716C124.8 167.672 124.843 167.672 124.93 167.629C125.236 167.498 125.628 167.455 125.976 167.542C135.345 170.156 144.626 171.55 153.297 171.55C154.212 171.55 155.171 171.551 156.086 171.507C157.132 171.463 158.221 171.42 159.267 171.333C160.269 171.333 160.966 172.335 160.531 173.206ZM162.796 164.317C160.618 164.622 158.308 164.84 155.912 164.927C150.029 165.145 143.798 164.622 137.436 163.446C136.652 163.315 136.521 162.226 137.218 161.877C138.613 161.18 140.007 160.439 141.402 159.698C151.162 154.513 160.313 148.848 168.287 143.053C168.853 142.617 169.725 143.14 169.594 143.837C168.461 150.504 166.98 156.779 165.019 162.443C164.627 163.489 163.799 164.186 162.796 164.317ZM173.646 170.156C173.124 170.723 172.514 171.333 171.947 171.899C170.988 172.858 169.899 173.86 168.897 174.775C168.243 175.341 167.241 174.644 167.59 173.86C167.677 173.642 167.808 173.424 167.895 173.163C168.33 172.204 168.723 171.202 169.202 170.2C169.289 169.982 169.507 169.808 169.725 169.72C170.727 169.459 171.773 169.154 172.731 168.849C173.603 168.587 174.213 169.59 173.646 170.156ZM188.375 146.888C188.07 147.628 187.808 148.369 187.459 149.11C187.372 149.241 186.937 150.156 186.893 150.286C184.453 154.774 180.444 158.304 175.215 160.788C173.995 161.354 172.688 160.265 173.036 158.958C174.867 152.509 176.174 145.537 177.089 138.173C177.263 136.778 177.917 135.558 178.962 134.643C181.185 132.726 183.276 130.765 185.194 128.848C186.109 127.933 187.721 128.325 188.113 129.589C189.987 135.907 190.117 141.789 188.375 146.888ZM189.856 112.507C189.333 113.466 187.895 113.51 187.285 112.595C187.198 112.464 187.111 112.29 187.024 112.159C184.845 108.76 182.318 105.492 179.529 102.268C178.832 101.483 179.398 100.263 180.444 100.22H180.488C187.067 100.22 190.51 101.875 191.555 103.836C192.383 105.492 192.122 108.411 189.856 112.507ZM193.429 122.181C193.429 122.66 192.732 122.791 192.558 122.355C192.47 122.181 192.383 121.963 192.296 121.789C192.122 121.44 192.165 121.004 192.427 120.656C192.471 120.612 192.558 120.482 192.688 120.307C192.993 119.915 193.473 119.959 193.473 120.394C193.429 121.004 193.429 121.571 193.429 122.181Z" fill="white"/>
</svg>

<svg xmlns="http://www.w3.org/2000/svg" width="240" height="240" fill="none" viewBox="0 0 240 240"><rect width="240" height="240" fill="#E50571" rx="120"/><path fill="#fff" d="M198.309 103.357c-3.137-15.033-10.588-28.803-21.7-39.914C161.489 48.323 141.402 40 120.007 40s-41.483 8.28-56.603 23.4a80.6 80.6 0 0 0-9.76 11.851c-.829 1.133-1.613 2.31-2.267 3.574-7.407 12.331-11.373 26.406-11.373 41.177 0 21.395 8.323 41.483 23.443 56.603s35.208 23.443 56.603 23.443 41.483-8.323 56.603-23.443c7.103-7.102 12.767-15.382 16.733-24.314.479-.959.871-2.005 1.263-3.05 3.617-9.151 5.491-19.042 5.491-29.195 0-5.36-.523-10.458-1.569-15.6-.044-.261-.218-.915-.262-1.089m-27.756-36.559c.435.436.915.872 1.394 1.35 7.059 7.06 12.549 15.339 16.166 24.315.349.872-.392 1.874-1.394 1.7-2.092-.392-4.488-.523-7.103-.48-1.83.044-3.442-1.263-3.747-3.006-1.438-8.018-3.53-15.382-6.144-21.83-.131-.35-.305-.698-.436-1.134-.349-.828.654-1.569 1.264-.915m7.625 46.93c0-.828 1.046-1.221 1.569-.523.566.828 1.176 1.699 1.743 2.527a47 47 0 0 1 2.048 3.399 1.91 1.91 0 0 1-.218 2.178 82 82 0 0 1-2.789 2.92l-1.133 1.133c-.479.436-1.307.087-1.263-.523.043-1.22.087-2.397.087-3.66.043-2.571.043-5.011-.044-7.451M77.391 60.218c12.375-8.845 27.103-13.595 42.616-13.595 4.096 0 8.148.349 12.113.959 1.046.174 1.438 1.525.567 2.179-3.835 3.006-7.364 7.45-10.545 13.203-.741 1.438-2.397 2.091-3.966 1.655-10.457-2.92-20.74-4.313-30.24-4.008-3.53.13-6.798.479-9.935 1.045-.871.218-1.307-.915-.61-1.438M66.933 169.895c-1.568-2.876.436-9.63 10.589-19.914 1.046-1.046.958-2.788-.218-3.747-.392-.305-.784-.61-1.22-.959-1.002-.784-2.484-.741-3.399.175l-.392.392c-5.055 5.185-8.628 10.022-10.589 14.379a1.697 1.697 0 0 1-3.006.218c-7.887-11.852-12.114-25.796-12.114-40.393 0-5.186.523-10.371 1.612-15.338.175-.741 1.22-.785 1.482-.044 1.525 5.011 4.009 10.24 7.408 15.469 4.618 7.059 10.675 13.857 17.909 20.131 2.44 2.135 5.054 4.183 7.8 6.188a133 133 0 0 0 17.821 11.024c2.789 1.482 5.578 2.832 8.366 4.14a6.44 6.44 0 0 0 4.924.13 153 153 0 0 0 4.009-1.612c1.482-.61 2.266-2.179 1.874-3.747-.044-.175-.087-.349-.087-.436-2.223-9.281-3.443-19.783-3.617-30.72v-5.185c0-2.571.087-3.748.174-5.621.654-13.247 2.92-25.665 6.493-36.167a1.87 1.87 0 0 0-1.177-2.353c-.915-.305-1.873-.61-2.832-.915-.915-.305-1.961.218-2.309 1.177-3.879 11.372-6.275 24.837-6.885 39.086-.087 1.83-1.046 3.486-2.615 4.401-8.453 5.011-16.166 10.327-22.92 15.643-1.394 1.133-3.398 1.046-4.75-.087-6.71-5.839-12.374-12.158-16.645-18.737-8.41-12.898-10.414-25.012-5.62-34.206l.043-.044a69 69 0 0 1 1.917-2.963c5.49-7.233 15.687-11.46 29.239-11.939.827-.044 1.742-.044 2.57-.044 8.323 0 17.212 1.395 26.276 4.01.174.043 1.481.435 1.743.522 2.309.74 6.231 2.092 6.754 2.266.217.087 1.437.566 1.612.61 4.444 1.743 8.845 3.704 13.203 5.97 8.453 4.4 16.166 9.543 22.963 15.207-12.854 2.92-27.8 8.628-42.833 16.253a2.2 2.2 0 0 0-1.22 1.83c-.044.915-.131 2.789-.174 4.314-.044.915.958 1.569 1.786 1.133 14.902-7.843 29.761-13.639 42.529-16.776 2.396-.566 3.921-2.832 3.616-5.272a86 86 0 0 0-.784-5.011c-.349-2.048-1.525-3.922-3.138-5.142-5.969-4.532-12.549-8.715-19.608-12.419a137 137 0 0 0-14.423-6.492c-1.002-.392-1.481-1.613-.915-2.571 4.967-8.89 10.894-13.857 16.689-13.857h.174c6.798.13 13.552 7.19 18.606 19.434 2.528 6.188 4.489 13.334 5.883 21.09.392 2.179.697 4.401.959 6.667.13 1.177.348 2.963.479 3.747.566 5.883.784 12.027.697 18.258-.087 3.965-.261 7.887-.61 11.678-9.107 7.32-20.349 14.684-32.724 21.221-3.355 1.742-6.711 3.442-10.022 5.011-.697.348-3.573 1.612-3.748 1.699-3.137 1.438-6.231 2.702-9.325 3.922-.174.087-3.66 1.394-3.878 1.481-.261.087-2.048.741-2.266.828-6.666 2.353-13.072 4.14-18.91 5.273-14.772 2.832-21.7.653-23.226-2.266m20.088-28.498c6.449-5.229 14.031-10.545 22.354-15.512.174 10.632 1.35 20.872 3.442 30.066-3.05-1.351-6.144-2.745-9.194-4.357a128 128 0 0 1-16.602-10.197m42.441 51.418c-3.094.392-6.274.61-9.455.61-14.293 0-27.931-4.053-39.61-11.591-.784-.523-.435-1.787.48-1.83.174 0 .392 0 .523-.044 2.963-.174 6.231-.61 9.76-1.307 7.495-1.481 15.862-3.922 24.62-7.277.784-.305 1.656.087 2.004.872 3.399 8.279 7.539 14.51 12.288 18.475a1.176 1.176 0 0 1-.61 2.092m31.069-19.609c-5.229 10.327-11.678 16.079-17.953 15.948-6.798-.13-13.552-7.189-18.606-19.434-.305-.74.043-1.655.784-2.004.044-.044.087-.044.174-.087a1.7 1.7 0 0 1 1.046-.087c9.369 2.614 18.65 4.008 27.321 4.008.915 0 1.874.001 2.789-.043 1.046-.044 2.135-.087 3.181-.174 1.002 0 1.699 1.002 1.264 1.873m2.265-8.889a67 67 0 0 1-6.884.61c-5.883.218-12.114-.305-18.476-1.481-.784-.131-.915-1.22-.218-1.569 1.395-.697 2.789-1.438 4.184-2.179 9.76-5.185 18.911-10.85 26.885-16.645.566-.436 1.438.087 1.307.784-1.133 6.667-2.614 12.942-4.575 18.606-.392 1.046-1.22 1.743-2.223 1.874m10.85 5.839a60 60 0 0 1-1.699 1.743c-.959.959-2.048 1.961-3.05 2.876-.654.566-1.656-.131-1.307-.915.087-.218.218-.436.305-.697.435-.959.828-1.961 1.307-2.963.087-.218.305-.392.523-.48a60 60 0 0 0 3.006-.871c.872-.262 1.482.741.915 1.307m14.729-23.268c-.305.74-.567 1.481-.916 2.222-.087.131-.522 1.046-.566 1.176-2.44 4.488-6.449 8.018-11.678 10.502a1.563 1.563 0 0 1-2.179-1.83c1.831-6.449 3.138-13.421 4.053-20.785a5.54 5.54 0 0 1 1.873-3.53 116 116 0 0 0 6.232-5.795c.915-.915 2.527-.523 2.919.741 1.874 6.318 2.004 12.2.262 17.299m1.481-34.381c-.523.959-1.961 1.003-2.571.088-.087-.131-.174-.305-.261-.436-2.179-3.399-4.706-6.667-7.495-9.891-.697-.785-.131-2.005.915-2.048h.044c6.579 0 10.022 1.655 11.067 3.616.828 1.656.567 4.575-1.699 8.671m3.573 9.674c0 .479-.697.61-.871.174-.088-.174-.175-.392-.262-.566-.174-.349-.131-.785.131-1.133.044-.044.131-.174.261-.349.305-.392.785-.348.785.087-.044.61-.044 1.177-.044 1.787"/></svg>
